src/images/crypto-icon-svg/xlm.svg

<svg xmlns="http://www.w3.org/2000/svg" width="32" height="32" viewBox="0 0 32 32">
  <g fill="none" fill-rule="evenodd">
    <circle cx="16" cy="16" r="16" fill="#14B6E7"/>
    <path fill="#FFF" d="M12.7786055,13.5272375 C13.4097924,12.4045825 14.1318823,11.1440186 14.8897619,9.87066046 C16.9924998,6.33774644 22.6128103,5.97111371 22.9184371,6.19149112 L22.9157284,6.1972723 L22.9197784,6.19256648 C23.2257342,6.41285437 24.7805491,11.9421013 22.2323208,15.1547874 C21.3205781,16.3045911 20.4085446,17.4161014 19.590932,18.3962438 C20.5210718,19.8576275 21.1551669,22.327458 18.9658356,25.8070749 C18.86239,25.9713746 18.665069,26.1050228 18.6511174,25.7649642 C18.616533,24.9361741 18.3278336,23.2875382 16.7482178,21.7476529 C16.7089166,21.7940541 16.6756232,21.8336234 16.6486909,21.8660132 C16.1631061,22.4496919 15.7594655,22.3712936 15.0918921,21.8907702 C15.0756726,21.8791069 15.0578777,21.8663091 15.0385936,21.8524387 C14.9627537,22.1378542 14.8379332,22.4147646 14.6619459,22.6705147 C14.6423317,22.6994528 14.6198157,22.7253225 14.5990036,22.752873 C13.1194996,24.83643 11.0324221,25.8607622 9.89414947,25.0392638 C8.75608826,24.2185603 8.99446975,21.8614723 10.4121587,19.7325603 C10.4307801,19.7030358 10.4471274,19.6728404 10.4671324,19.643798 C10.6416038,19.3899504 10.852281,19.1776448 11.0870437,19.0090168 C11.0866494,19.0087332 11.086256,19.0084504 11.0858636,19.0081681 C10.4187076,18.5278952 10.2107627,18.165629 10.5850228,17.5020621 C10.6003996,17.474819 10.6182282,17.4428994 10.6384268,17.4064887 C8.68645649,16.4532704 7.06790592,16.7355138 6.28589253,16.9828339 C5.96126861,17.0856417 6.02015744,16.8501433 6.1396358,16.6938762 C8.61194945,13.4702804 11.0900134,13.1708764 12.7786055,13.5272375 Z M11.7330684,19.4738086 C11.6403092,19.5595026 11.5550997,19.6562771 11.4794178,19.7637785 C11.4648512,19.7838046 11.4538463,19.8045537 11.4405609,19.8246515 C10.4416505,21.2889511 10.2657886,22.9054853 11.0585253,23.4636156 C11.8507687,24.0214658 13.313195,23.3115049 14.3551964,21.8777199 C14.370474,21.8587687 14.3860591,21.8409967 14.4002349,21.8210749 C14.4687126,21.7238066 14.5262963,21.6221629 14.5732349,21.5176096 C14.1714843,21.2284973 13.6277023,20.8371037 13.0892505,20.4495497 C12.6058277,20.1018182 12.1183608,19.7510503 11.7330684,19.4738086 Z M16.6651601,10.70357 C15.9434242,11.7466189 16.188884,13.1876026 17.2139039,13.9227818 C18.2392762,14.6578697 19.6562733,14.4079088 20.3776569,13.3649511 C21.0999246,12.3225147 20.8539331,10.8809186 19.8285609,10.1458306 C18.8031886,9.41074267 17.3868,9.66016287 16.6651601,10.70357 Z"/>
  </g>
</svg>

<svg xmlns="http://www.w3.org/2000/svg" width="32" height="32"><g fill="none" fill-rule="evenodd"><circle cx="16" cy="16" r="16" fill="#14B6E7"/><path fill="#FFF" d="M12.779 13.527a172.718 172.718 0 0 1 2.11-3.656c2.103-3.533 7.724-3.9 8.03-3.68l-.003.006.004-.004c.306.22 1.86 5.75-.688 8.962a170.192 170.192 0 0 1-2.641 3.241c.93 1.462 1.564 3.931-.625 7.411-.104.164-.3.298-.315-.042-.034-.829-.323-2.477-1.903-4.017l-.1.118c-.485.584-.889.505-1.556.025l-.053-.039c-.076.286-.201.563-.377.819-.02.028-.042.054-.063.082-1.48 2.083-3.567 3.108-4.705 2.286-1.138-.82-.9-3.178.518-5.306.019-.03.035-.06.055-.09.175-.253.385-.465.62-.634h-.001c-.667-.481-.875-.843-.501-1.507l.053-.096c-1.952-.953-3.57-.67-4.352-.423-.325.103-.266-.133-.146-.29 2.472-3.223 4.95-3.522 6.639-3.166zm-1.046 5.947a1.823 1.823 0 0 0-.254.29c-.014.02-.025.04-.038.06-1 1.465-1.175 3.081-.382 3.64.792.557 2.254-.152 3.296-1.586.015-.02.031-.037.045-.057.069-.097.126-.199.173-.303L13.09 20.45l-1.356-.976zm4.932-8.77a2.337 2.337 0 0 0 .549 3.219 2.245 2.245 0 0 0 3.164-.558 2.336 2.336 0 0 0-.55-3.22 2.245 2.245 0 0 0-3.163.559z"/></g></svg>
